dist/assets/img/questions/5/answers/3_1200.svg

<svg width="547" height="252" viewBox="0 0 547 252" fill="none" xmlns="http://www.w3.org/2000/svg">
<g filter="url(#filter0_di_1419_52270)">
<path fill-rule="evenodd" clip-rule="evenodd" d="M67.0998 28C63.0575 28 59.6503 31.0155 59.1591 35.0278L40.0604 191.028C39.4767 195.796 43.1973 200 48.0011 200H468.824C472.866 200 476.274 196.985 476.765 192.972L481.75 152.255C482.239 148.256 485.642 145.196 489.638 145.719C496.803 146.657 502.983 148.799 506.578 150.045C506.646 150.068 506.707 149.995 506.67 149.933C503.108 143.899 496.9 139.744 490.294 136.971C486.685 135.456 484.246 131.864 484.722 127.979L495.864 36.9722C496.447 32.2039 492.727 28 487.923 28H67.0998Z" fill="#FFF0CB"/>
</g>
<defs>
<filter id="filter0_di_1419_52270" x="0" y="0" width="546.682" height="252" filterUnits="userSpaceOnUse" color-interpolation-filters="sRGB">
<feFlood flood-opacity="0" result="BackgroundImageFix"/>
<feColorMatrix in="SourceAlpha" type="matrix" values="0 0 0 0 0 0 0 0 0 0 0 0 0 0 0 0 0 0 127 0" result="hardAlpha"/>
<feOffset dy="12"/>
<feGaussianBlur stdDeviation="20"/>
<feComposite in2="hardAlpha" operator="out"/>
<feColorMatrix type="matrix" values="0 0 0 0 1 0 0 0 0 1 0 0 0 0 1 0 0 0 1 0"/>
<feBlend mode="normal" in2="BackgroundImageFix" result="effect1_dropShadow_1419_52270"/>
<feBlend mode="normal" in="SourceGraphic" in2="effect1_dropShadow_1419_52270" result="shape"/>
<feColorMatrix in="SourceAlpha" type="matrix" values="0 0 0 0 0 0 0 0 0 0 0 0 0 0 0 0 0 0 127 0" result="hardAlpha"/>
<feOffset dy="-4"/>
<feGaussianBlur stdDeviation="4"/>
<feComposite in2="hardAlpha" operator="arithmetic" k2="-1" k3="1"/>
<feColorMatrix type="matrix" values="0 0 0 0 0.883659 0 0 0 0 0.635314 0 0 0 0 0.0558422 0 0 0 0.4 0"/>
<feBlend mode="normal" in2="shape" result="effect2_innerShadow_1419_52270"/>
</filter>
</defs>
</svg>

<svg width="547" height="252" viewBox="0 0 547 252" fill="none" xmlns="http://www.w3.org/2000/svg"><g filter="url(#filter0_di_1419_52270)"><path fill-rule="evenodd" clip-rule="evenodd" d="M67.1 28a8 8 0 00-7.94 7.028l-19.1 156c-.583 4.768 3.137 8.972 7.941 8.972h420.823a8 8 0 007.941-7.028l4.985-40.717c.489-3.999 3.892-7.059 7.888-6.536 7.165.938 13.345 3.08 16.94 4.326.068.023.129-.05.092-.112-3.562-6.034-9.77-10.189-16.376-12.962-3.609-1.515-6.048-5.107-5.572-8.992l11.142-91.007c.583-4.768-3.137-8.972-7.941-8.972H67.1z" fill="#FFF0CB"/></g><defs><filter id="filter0_di_1419_52270" x="0" y="0" width="546.682" height="252" filterUnits="userSpaceOnUse" color-interpolation-filters="sRGB"><feFlood flood-opacity="0" result="BackgroundImageFix"/><feColorMatrix in="SourceAlpha" values="0 0 0 0 0 0 0 0 0 0 0 0 0 0 0 0 0 0 127 0" result="hardAlpha"/><feOffset dy="12"/><feGaussianBlur stdDeviation="20"/><feComposite in2="hardAlpha" operator="out"/><feColorMatrix values="0 0 0 0 1 0 0 0 0 1 0 0 0 0 1 0 0 0 1 0"/><feBlend in2="BackgroundImageFix" result="effect1_dropShadow_1419_52270"/><feBlend in="SourceGraphic" in2="effect1_dropShadow_1419_52270" result="shape"/><feColorMatrix in="SourceAlpha" values="0 0 0 0 0 0 0 0 0 0 0 0 0 0 0 0 0 0 127 0" result="hardAlpha"/><feOffset dy="-4"/><feGaussianBlur stdDeviation="4"/><feComposite in2="hardAlpha" operator="arithmetic" k2="-1" k3="1"/><feColorMatrix values="0 0 0 0 0.883659 0 0 0 0 0.635314 0 0 0 0 0.0558422 0 0 0 0.4 0"/><feBlend in2="shape" result="effect2_innerShadow_1419_52270"/></filter></defs></svg>
